X:1
T:Freedom
T:Freedom
T:Jewel Camp Fretz
T:Jewel Camp Fretz, 1908
T:Public Domain Courtesy of the Cyber Hymnal™
T:Public Domain Courtesy of the Cyber Hymnal™
C:Jewel Camp Fretz
Z:Public Domain
Z:Courtesy of the Cyber Hymnal™
%%score ( 1 2 ) ( 3 4 )
L:1/8
Q:1/4=92
M:4/4
K:G
V:1 treble 
V:2 treble 
V:3 bass 
V:4 bass 
V:1
 [Gd]>[Ge] [Gd]>[Gc] [GB]2 [=FA]2 | [EG]>[FA] [EG]>[DF] [CE]4 | %2
w: 1.~Christ, our glor- ious lead- er,|calls to us to- day—|
w: 2.~Mov- ing brave- ly on- ward|with His truth un- furled,|
w: 3.~Tho’ the bat- tle rag- es,|strife will soon be past;|
 [CF]>[CF] [CF]>[CE] [CD]>[CD] [CE]>[CF] | [B,G]2 [DA]2 [DB]4 | [Gd]>[Ge] [Gd]>[Gc] [GB]2 [=FA]2 | %5
w: “Gird the ar- mor on and to the|field a- way!”|Slum- ber then no long- er,|
w: See the hosts of sin be- fore us|back- ward hurled;|With our cap- tain we may|
w: Skies will soon be light, which now are|o- ver- cast;|We the vic- tor’s song of|
 [EG]>[EA] [EG]>[DF] [CE]4 | [CD]>[CD] [CD]>[CE] [CF]2 [DB]2 | ([B,G]6 (3DGB) |: %8
w: His com- mand o- bey,|And for- ev- er- more be|free. * * *|
w: o- ver- come the world,|And for- ev- er- more be|free. * * *|
w: joy may sing at last,|And for- ev- er- more be|free. * * *|
"^Refrain" [DBd]2 [DGB]2 [CDA]2 [B,G]2 | [B,D]>E [B,D]>E [B,D]4 | [DBd]2 [DGB]2 [CDA]2 [B,G]2 | %11
w: Free- dom! free- dom!|free in Christ, the Lord!|Free- dom! free- dom!|
w: |||
w: Free- dom! free- dom!|free in Christ, the Lord!|Free- dom! free- dom!|
 D>E D>E [CD]4 | [DFc]2 [DFc]2 [DFB]2 [DFB]2 | [DG]>[DG] [DG]>[DFA] | [DGB]2 [DGB]>[DGB] |1 %15
w: trust- ing in His Word!|By His grace and|in His strength we|win, For His|
w: ||||
w: trust- ing in His Word!|We His faith- ful|fol- low- ers will|be, And we|
 [^CGA]>[DGA] [EGA]>[EGA] [EGA]2 [EGA]2 | [DFAd]8 :|2 [Gd]>[Ge] [Gd]>[Gc] [GB]2 D2 || [DG]6 z2 |] %19
w: truth and love hath con- quered|sin!|||
w: ||||
w: ~ ~ ~ ~ ~ ~|~|shall for- ev- er- more be|free.|
V:2
 x8 | x8 | x8 | x8 | x8 | x8 | x8 | x8 |: x8 | x8 | x8 | C2 C2 x4 | x8 | x4 | x4 |1 x8 | x8 :|2 %17
 x6 D2 || x8 |] %19
V:3
 [G,B,]>[G,C] [G,B,]>[G,E] [G,D]2 [G,B,]2 | [C,C]>[C,C] [C,C]>[C,C] [C,G,]4 | %2
 D,>D, [D,A,]>[D,G,] [D,F,]>[D,F,] [D,G,]>[D,A,] | [E,G,]2 [D,F,]2 G,4 | %4
 [G,B,]>[G,C] [G,B,]>[G,E] [G,D]2 [G,B,]2 | [C,C]>[C,C] [C,C]>[C,C] [C,G,]4 | %6
 [D,F,]>[D,F,] [D,F,]>[D,G,] [D,A,]2 [D,F,]2 | [G,,G,]6 z2 |: [G,,G,]2 [D,,D,]2 [G,,G,]2 [D,,D,]2 | %9
 [G,,G,]2 [D,,D,]2 ([G,,G,]2 [D,,D,]2) | [G,,G,]2 [D,,D,]2 [G,,G,]2 [D,,D,]2 | %11
 [A,,A,]2 [D,,D,]2 ([A,,A,]2 [D,,D,]2) | (D,>E,) (F,>A,) D2 C2 | B,>B, B,>A, | G,2 G,>G, |1 %15
 A,>B, ^C>B, (A,>G,) (F,>E,) | D,8 :|2 [G,B,]>[G,C] [B,,D]>[C,E] [D,D]2 [D,C]2 || [G,,B,]6 z2 |] %19
V:4
 x8 | x8 | D,>D, x6 | x4 G,4 | x8 | x8 | x8 | x8 |: x8 | x8 | x8 | x8 | x8 | x4 | x4 |1 x8 | %16
 (D,2 C,2 B,,2 A,,2) :|2 x8 || x8 |] %19

